X: 305703
M: 6/8
L: 1/8
K: F
c |\
cAF CFA | CFA cAF | BGE CEG | BAB dcB |\
g |\
g>ag g>ag | g2c' gec | fef ede | dd'c' =bag |\
c'ac' afa | geg fdf | ece dBd | c=BA GA"^D.C."B |]
K: Fm
f2f a2a | f2f c'3 | a2a g2f | =efg x3 |\
d2d dcB | cBc gcB | AGA GFG | F2F F2 =A/"^D.C."=B/ |]


